X: 1735
T: Music Makes Me Smile (Set Tune)
C:Con Klippel, Nariel Vic
B: australian traditional tunes wiki
M:4/4
L:1/8
R: One Step
Q: 1/4=100
K:C
V:1 
EF|"C"Gg ec Gc Gc|"F"Af dB A3c|"G7"Bb af gf AB|"C"cG cfg2EF|
"C"Gg ec Gc Gc|"F"Af dB A3c|"G7"Bb af gf AB|"C"cc/c/ ccc2EF|
"C"Ge zc ec zG|"G7"Bf zd fd zc|"C"Ge zc ec zA|"G7"dA dA d2EF|
"C"Ge zc ec zG|"G7"Bf zd fd zc|.Gz (3gzg gf AB|"C"cG/G/ GEC2||
% abcbook-tune_id 6342d53a5a7efcf71d38143c


% abcbook-boost 0
% abcbook-tablature 
% abcbook-transpose 
% abcbook-lastupdated 1665324380855
% abcbook-soundfonts 
% abcbook-repeats 1
% NFF Book 2016

